X: 43258
T: Woman Of The House, The
R: reel
M: 4/4
K: Dmajor
|:DFFE F3E|DF F2 BFAF|(3EFE DF E2(3FGA|BF F2 BFAF|
DFFE F3E|DF F2 (3BcB AF|DEFD (3EFE DE|(3FED ED Bd d2:|
|:c3A BF F2|BFdF BF F2|c3A BA (3FGA|Beed e3d|
c3A BF F2|BFdF BFFE|DEFD (3EFE DE|(3FED ED Bd d2:|

